X:1
T:Herring the King
M:6/8
L:1/8
K:F
 A| A2 _d =d2 e| f2 e d2 c| AcBG-E G| c2 c A2 G| A2 _d =d2 e| f2 e d2 c|\
A-c AG-EF/2-E/2| D2 D D2 A| AcAG-E G| c2 d e2 e| d2 cB-AA/2-=B/2| c2 c A2 G|\
 A2 _d =d2 e| f2 e d2 c|A-c AG-EF/2-E/2| D/2 D3/2 D D2||
